X:1
T:Title
%%score { ( 1 4 ) | ( 2 3 ) }
L:1/8
Q:1/4=100
M:4/4
K:F
V:1 treble nm="Grand Piano"
V:4 treble 
V:2 bass 
V:3 bass 
V:1
 [DF]2 [^CE]>[CG] [DF]2 [DF]2 | [FB]2 c2 d4 | [DF]2 [^CE]>[CG] .[F,DF]2 [B,FB]2 | %3
w: I.~Allan~Sankey * * * *|||
 [Ec]2 [EG]2 dcAG | [B,DF]2 [G,^CE]>[CG] [DF]2 [DF]2 | z4 d4 |[M:9/8] _e2 d- d/[G^c]/ d2 F3 | %7
w: ||||
[M:4/4] [EG]2 [_Ed]>[Ec] [DB]4 | c2 c>=B c4 | z4 d4 |[M:9/8] _e2 d- d/[G^c]/ d2 F3 | %11
w: ||||
[M:4/4] [EG]2 [_Ed]>[Ec] [DB]4 |] %12
w: |
V:2
 [B,,B,]2 [B,,G,]>[B,,E,] [B,,F,]2 [B,,B,]2 | [D,B,]2[K:treble] [F,A,F]2 [B,F]4 | %2
 [B,,B,]2 [B,,G,]>[B,,E,] z B, D,2 | z4 z2 [F,_E]2 | B,,2 B,,>[B,,E,] [B,,F,]2 [B,,B,]2 | %5
 [D,B,]2[K:treble] [F,A,F]2 [B,F]4 | %6
[M:9/8] [G,B,_E]2 [F,B,F]- [F,B,F]/[K:bass][E,B,]/ [F,B,F]2 [D,B,]3 | %7
[M:4/4] [C,B,]2 [F,A,]>[F,A,] [B,,F,B,]4 | [F,A,_E]2 [F,A,E]>[F,_A,D] [F,=A,E]4 | %9
 [B,,B,]2 [B,,B,]>[B,,B,][K:treble] [B,F]4 | %10
[M:9/8] [G,B,_E]2[K:bass] [F,B,F]- [F,B,F]/[E,B,]/ [F,B,F]2 [D,B,]3 | %11
[M:4/4] [C,B,]2 [F,,F,A,]>[F,,F,A,] [B,,F,B,]4 |] %12
V:3
 x8 | x2[K:treble] x6 | z4 B,,2 z2 | [C,B,]2 [C,B,]2 [F,A,_E]2 CA, | x8 | x2[K:treble] x6 | %6
[M:9/8] x7/2[K:bass] x11/2 |[M:4/4] x8 | x8 | x4[K:treble] x4 |[M:9/8] x2[K:bass] x7 |[M:4/4] x8 |] %12
V:4
 x8 | x8 | x8 | x8 | x8 | [FB]2 c2 z2 _A,2 |[M:9/8] x9 |[M:4/4] x8 | x8 | %9
 [Fd]2 [Fd]>[E^c] z2 _A,2 |[M:9/8] x9 |[M:4/4] x8 |] %12

